icons/evolvere-blue-folders-flat-vivid-dark-fallback/apps/64/distributor-logo-solydx.svg

<?xml version="1.0" encoding="UTF-8" standalone="no"?>
<!-- Created with Inkscape (http://www.inkscape.org/) -->

<svg
   xmlns:dc="http://purl.org/dc/elements/1.1/"
   xmlns:cc="http://creativecommons.org/ns#"
   xmlns:rdf="http://www.w3.org/1999/02/22-rdf-syntax-ns#"
   xmlns:svg="http://www.w3.org/2000/svg"
   xmlns="http://www.w3.org/2000/svg"
   xmlns:sodipodi="http://sodipodi.sourceforge.net/DTD/sodipodi-0.dtd"
   xmlns:inkscape="http://www.inkscape.org/namespaces/inkscape"
   width="64"
   height="64"
   id="svg13094"
   version="1.1"
   inkscape:version="0.91+devel r"
   sodipodi:docname="distributor-logo-solydx.svg">
  <sodipodi:namedview
     id="base"
     pagecolor="#ffffff"
     bordercolor="#666666"
     borderopacity="1.0"
     inkscape:pageopacity="0"
     inkscape:pageshadow="2"
     inkscape:zoom="11.313709"
     inkscape:cx="24.052396"
     inkscape:cy="31.092833"
     inkscape:document-units="px"
     inkscape:current-layer="svg13094"
     showgrid="false"
     inkscape:snap-bbox="true"
     inkscape:bbox-paths="true"
     inkscape:bbox-nodes="true"
     inkscape:snap-bbox-edge-midpoints="true"
     inkscape:snap-bbox-midpoints="true"
     inkscape:object-paths="true"
     inkscape:snap-intersection-paths="true"
     inkscape:object-nodes="true"
     inkscape:snap-smooth-nodes="true"
     inkscape:snap-midpoints="true"
     inkscape:snap-object-midpoints="true"
     inkscape:snap-center="true"
     showguides="true"
     inkscape:guide-bbox="true"
     inkscape:window-width="1920"
     inkscape:window-height="1025"
     inkscape:window-x="-2"
     inkscape:window-y="32"
     inkscape:window-maximized="1"
     inkscape:snap-global="true"
     fit-margin-top="0"
     fit-margin-left="0"
     fit-margin-right="0"
     fit-margin-bottom="0"
     showborder="true"
     inkscape:showpageshadow="false"
     inkscape:snap-page="true">
    <inkscape:grid
       type="xygrid"
       id="grid3075"
       empspacing="5"
       visible="true"
       enabled="true"
       snapvisiblegridlinesonly="true"
       originx="1.6362304e-08px"
       originy="18px" />
  </sodipodi:namedview>
  <defs
     id="defs13096" />
  <metadata
     id="metadata13099">
    <rdf:RDF>
      <cc:Work
         rdf:about="">
        <dc:format>image/svg+xml</dc:format>
        <dc:type
           rdf:resource="http://purl.org/dc/dcmitype/StillImage" />
        <dc:title></dc:title>
      </cc:Work>
    </rdf:RDF>
  </metadata>
  <path
     style="color:#000000;fill:#c47810;fill-opacity:1;fill-rule:nonzero;stroke:none;stroke-width:2.28571415;marker:none;visibility:visible;display:inline;overflow:visible;enable-background:accumulate"
     d="M 1,38 1,61 3,63 26,63 1,38 z"
     id="path3753"
     inkscape:connector-curvature="0" />
  <path
     style="color:#000000;fill:#e48a0f;fill-opacity:1;fill-rule:nonzero;stroke:none;stroke-width:2.28571415;marker:none;visibility:visible;display:inline;overflow:visible;enable-background:accumulate"
     d="M 0 4 L 0 34 L 0 39 L 25 64 L 32 64 L 62 64 L 64 62 L 64 34 L 64 29 L 39 4 L 32 4 L 0 4 z "
     id="path4540" />
  <path
     style="color:#000000;fill:#ffc400;fill-opacity:1;fill-rule:nonzero;stroke:none;marker:none;visibility:visible;display:inline;overflow:visible;enable-background:accumulate"
     d="M 2 0 L 0 1 L 0 4 L 32 4 L 39 4 L 39 0 L 2 0 z "
     id="path4572" />
  <path
     style="color:#000000;fill:#ffa222;fill-opacity:1;fill-rule:nonzero;stroke:none;marker:none;visibility:visible;display:inline;overflow:visible;enable-background:accumulate"
     d="M 39,1 39,4 63,4 63,2 61,1 z"
     id="path6502"
     inkscape:connector-curvature="0"
     sodipodi:nodetypes="cccccc" />
  <g
     id="g3043"
     inkscape:export-filename="folder.png"
     inkscape:export-xdpi="90"
     inkscape:export-ydpi="90"
     transform="translate(-0.62500009,0.082283)" />
  <g
     id="scalable"
     transform="matrix(1.0385892,0,0,1.0385892,1214.7222,1878.8121)"
     inkscape:label="#g3701"
     style="fill:#ffffff" />
  <path
     style="fill:#ffcc24;fill-opacity:1;fill-rule:nonzero"
     d="M 0,3 0,6 2,4 Z"
     id="path4298"
     inkscape:connector-curvature="0"
     sodipodi:nodetypes="cccc" />
  <path
     sodipodi:nodetypes="cccc"
     style="color:#000000;fill:#c47810;fill-opacity:1;stroke:none;stroke-width:1.99999988;marker:none;visibility:visible;display:inline;overflow:visible;enable-background:accumulate"
     d="M 39,4 63,28 63,4 z"
     id="path4564"
     inkscape:connector-curvature="0" />
  <path
     d="M 63,6 61,4 63,3 z"
     id="path3028"
     style="fill:#1f0700;fill-opacity:0.13759861"
     inkscape:connector-curvature="0" />
  <path
     d="m 44.342071,48.400004 c 0.430316,0.678623 0.80273,1.191726 1.117242,1.53931 0.314453,0.331036 0.645487,0.571036 0.993103,0.72 0.347556,0.148967 0.7779,0.240001 1.291035,0.273104 l 0,1.067586 c -2.317271,-0.132414 -3.773822,-0.198621 -4.369656,-0.198621 -1.142095,0 -3.533817,0.06621 -7.175173,0.198621 l 0,-1.067586 c 1.324117,1e-6 2.259288,-0.05793 2.805518,-0.173794 0.546183,-0.11586 0.819286,-0.331033 0.81931,-0.645517 -2.4e-5,-0.248274 -0.124161,-0.55448 -0.372414,-0.918621 l -8.689655,-13.307587 -5.486897,8.193104 c -1.291043,1.920006 -1.93656,3.40966 -1.936552,4.468966 -8e-6,0.860692 0.380681,1.473106 1.142069,1.837242 0.777921,0.364139 1.903438,0.562759 3.376552,0.595862 l 0,1.017931 c -1.920011,-0.09931 -4.204146,-0.148966 -6.852415,-0.148966 -1.870348,0 -3.310347,0.04966 -4.32,0.148966 l 0,-1.017931 c 1.009653,-0.148965 1.969653,-0.604137 2.88,-1.365518 0.926892,-0.761376 1.878615,-1.862065 2.855173,-3.302069 L 30.091036,34.868968 20.135173,19.600001 C 19.704824,18.921413 19.332411,18.416586 19.017931,18.085518 18.703446,17.737966 18.372411,17.489691 18.024828,17.34069 17.67724,17.19176 17.246895,17.100725 16.733793,17.067587 l 0,-1.067586 c 2.317239,0.132449 3.773789,0.198656 4.369656,0.19862 2.267579,3.6e-5 4.659301,-0.06617 7.175173,-0.19862 l 0,1.067586 c -2.267597,3.5e-5 -3.401389,0.372448 -3.40138,1.117241 -9e-6,0.264862 0.148956,0.637275 0.446897,1.117242 l 7.92,12.115863 4.990346,-7.473104 c 1.473079,-2.201349 2.20963,-3.831693 2.209655,-4.891035 -2.5e-5,-0.71169 -0.331059,-1.216518 -0.993104,-1.514483 -0.64554,-0.314448 -1.630366,-0.488241 -2.954483,-0.521379 l 0,-1.017931 c 1.93653,0.09935 3.889631,0.149001 5.859311,0.148965 1.853765,3.6e-5 3.293764,-0.04962 4.320001,-0.148965 l 0,1.017931 c -1.026237,0.149 -2.002788,0.612448 -2.929656,1.390345 -0.910372,0.761412 -1.845543,1.853825 -2.805517,3.277241 l -7.125518,10.626208 10.526897,16.088278"
     style="font-size:50.84690094px;font-style:normal;font-variant:normal;font-weight:normal;font-stretch:normal;line-height:125%;letter-spacing:0px;word-spacing:0px;color:#000000;fill:#fffcdf;fill-opacity:1;fill-rule:nonzero;stroke:none;stroke-width:2;marker:none;visibility:visible;font-family:Playfair Display;-inkscape-font-specification:Playfair Display"
     id="path3044"
     inkscape:connector-curvature="0" />
</svg>

<svg xmlns="http://www.w3.org/2000/svg" viewBox="0 0 64 64"><g color="#000"><path d="m1 38v23l2 2h23l-25-25" fill="#c47810"/><path d="m0 4v30 5l25 25h7 30l2-2v-28-5l-25-25h-7-32" fill="#e48a0f"/><path d="m2 0l-2 1v3h32 7v-4h-37" fill="#ffc400"/><path d="m39 1v3h24v-2l-2-1z" fill="#ffa222"/></g><path d="m0 3v3l2-2" fill="#ffcc24"/><path d="m39 4l24 24v-24z" fill="#c47810" color="#000"/><path d="m63 6l-2-2 2-1z" fill="#1f0700" fill-opacity=".138"/><path d="m44.34 48.4c.43.679.803 1.192 1.117 1.539.314.331.645.571.993.72.348.149.778.24 1.291.273v1.068c-2.317-.132-3.774-.199-4.37-.199-1.142 0-3.534.066-7.175.199v-1.068c1.324 0 2.259-.058 2.806-.174.546-.116.819-.331.819-.646 0-.248-.124-.554-.372-.919l-8.69-13.308-5.487 8.193c-1.291 1.92-1.937 3.41-1.937 4.469 0 .861.381 1.473 1.142 1.837.778.364 1.903.563 3.377.596v1.018c-1.92-.099-4.204-.149-6.852-.149-1.87 0-3.31.05-4.32.149v-1.018c1.01-.149 1.97-.604 2.88-1.366.927-.761 1.879-1.862 2.855-3.302l7.672-11.446-9.956-15.269c-.43-.679-.803-1.183-1.117-1.514-.314-.348-.646-.596-.993-.745-.348-.149-.778-.24-1.291-.273v-1.068c2.317.132 3.774.199 4.37.199 2.268 0 4.659-.066 7.175-.199v1.068c-2.268 0-3.401.372-3.401 1.117 0 .265.149.637.447 1.117l7.92 12.12 4.99-7.473c1.473-2.201 2.21-3.832 2.21-4.891 0-.712-.331-1.217-.993-1.514-.646-.314-1.63-.488-2.954-.521v-1.018c1.937.099 3.89.149 5.859.149 1.854 0 3.294-.05 4.32-.149v1.018c-1.026.149-2 .612-2.93 1.39-.91.761-1.846 1.854-2.806 3.277l-7.126 10.626 10.527 16.09" color="#000" fill="#fffcdf"/></svg>
